assets/icons/wordpress.svg

<svg width="17" height="18" viewBox="0 0 17 18" fill="none" xmlns="http://www.w3.org/2000/svg">
<path d="M1.12461 8.76797C1.12461 11.6907 2.82462 14.208 5.28307 15.4045L1.76538 5.76682C1.34298 6.71097 1.12463 7.73364 1.12461 8.76797ZM8.5 16.1433C9.35655 16.1433 10.1804 15.993 10.9519 15.7249L10.8996 15.6268L8.63076 9.41528L6.42076 15.8426C7.07462 16.0387 7.77424 16.1433 8.5 16.1433ZM9.51345 5.30911L12.1811 13.2403L12.92 10.7818C13.2339 9.76182 13.4758 9.02951 13.4758 8.39528C13.4758 7.47989 13.1489 6.8522 12.8742 6.36835C12.495 5.75373 12.1485 5.2372 12.1485 4.63566C12.1485 3.95566 12.6585 3.32797 13.3908 3.32797H13.4823C12.1233 2.08037 10.3448 1.38951 8.5 1.39258C7.2785 1.39235 6.07609 1.69579 5.00096 2.27558C3.92581 2.85538 3.01167 3.69335 2.34076 4.71411L2.81154 4.7272C3.58307 4.7272 4.77307 4.62911 4.77307 4.62911C5.17846 4.60951 5.22424 5.19142 4.82538 5.2372C4.82538 5.2372 4.42655 5.28951 3.97538 5.30911L6.66924 13.2991L8.28424 8.46066L7.13345 5.30911C6.8757 5.2949 6.61841 5.27309 6.36193 5.24373C5.96307 5.21759 6.00885 4.60951 6.40769 4.62911C6.40769 4.62911 7.62385 4.7272 8.34962 4.7272C9.12115 4.7272 10.3111 4.62911 10.3111 4.62911C10.71 4.60951 10.7623 5.19142 10.3635 5.2372C10.3635 5.2372 9.96462 5.28297 9.51345 5.30911ZM12.2073 15.143C13.3231 14.4942 14.249 13.564 14.8927 12.4453C15.5364 11.3266 15.8752 10.0586 15.8754 8.76797C15.8754 7.48642 15.5485 6.28335 14.9731 5.23066C15.0899 6.3888 14.9146 7.55777 14.4631 8.63066L12.2073 15.143ZM8.5 17.268C6.24566 17.268 4.08365 16.3724 2.4896 14.7784C0.895533 13.1843 0 11.0223 0 8.76797C0 6.51363 0.895533 4.35162 2.4896 2.75757C4.08365 1.1635 6.24566 0.267967 8.5 0.267967C10.7543 0.267967 12.9163 1.1635 14.5104 2.75757C16.1045 4.35162 17 6.51363 17 8.76797C17 11.0223 16.1045 13.1843 14.5104 14.7784C12.9163 16.3724 10.7543 17.268 8.5 17.268Z" fill="#126FC2"/>
</svg>

<svg width="17" height="18" viewBox="0 0 17 18" fill="none" xmlns="http://www.w3.org/2000/svg"><path d="M1.125 8.768c0 2.923 1.7 5.44 4.158 6.637L1.765 5.767a7.35 7.35 0 0 0-.64 3zM8.5 16.143c.857 0 1.68-.15 2.452-.418l-.052-.098-2.27-6.212-2.21 6.428c.655.196 1.354.3 2.08.3zM9.513 5.31l2.668 7.93.74-2.458c.314-1.02.556-1.752.556-2.387 0-.915-.327-1.543-.602-2.027-.38-.614-.725-1.13-.725-1.732-.001-.68.509-1.308 1.24-1.308h.092A7.35 7.35 0 0 0 8.5 1.393a7.37 7.37 0 0 0-6.16 3.321l.472.013c.771 0 1.961-.098 1.961-.098.405-.02.451.561.052.607 0 0-.398.053-.85.072L6.67 13.3l1.614-4.84-1.15-3.15a13.148 13.148 0 0 1-.772-.066c-.399-.026-.353-.634.046-.615 0 0 1.216.097 1.942.097.771 0 1.961-.098 1.961-.098.4-.02.452.561.053.607 0 0-.398.046-.85.072zm2.694 9.833a7.376 7.376 0 0 0 2.766-9.912 6.964 6.964 0 0 1-.51 3.4l-2.256 6.513zM8.5 17.268a8.5 8.5 0 1 1 0-17 8.5 8.5 0 0 1 0 17z" fill="#126FC2"/></svg>
